resources/svg/regular/abacus.svg

<svg xmlns="http://www.w3.org/2000/svg" fill="currentColor" stroke="none" viewBox="0 0 24 24"><path d="M2 3h2v18H2zm18 0h2v18h-2zM5 13h2v1h2v-1h2v1h2v-1h4v1h2v-4h-2v1h-4v-1h-2v1H9v-1H7v1H5zm0-9v4h2V7h8v1h2V7h2V5h-2V4h-2v1H7V4zm0 13v3h2v-1h2v1h2v-1h8v-2h-8v-1H9v1H7v-1H5z"/></svg>

<svg xmlns="http://www.w3.org/2000/svg" fill="currentColor" stroke="none" viewBox="0 0 24 24"><path d="M2 3H4V21H2zM20 3H22V21H20zM5 13L7 13 7 14 9 14 9 13 11 13 11 14 13 14 13 13 17 13 17 14 19 14 19 13 19 11 19 10 17 10 17 11 13 11 13 10 11 10 11 11 9 11 9 10 7 10 7 11 5 11zM5 4L5 5 5 7 5 8 7 8 7 7 15 7 15 8 17 8 17 7 19 7 19 5 17 5 17 4 15 4 15 5 7 5 7 4zM5 17L5 19 5 20 7 20 7 19 9 19 9 20 11 20 11 19 19 19 19 17 11 17 11 16 9 16 9 17 7 17 7 16 5 16z"/></svg>
